public/manufacturers/daihatsu.svg

<?xml version="1.0" encoding="UTF-8" standalone="no"?>
<svg
  xmlns="http://www.w3.org/2000/svg"
  version="1.0"
  width="600"
  height="109"
  id="svg2237">
  <defs
    id="defs2239"/>
  <g
    transform="translate(-155.7085,-363.10382)"
    id="layer1">
    <g
      transform="matrix(2799.7904,0,0,2797.3802,58.28573,-2418.7874)"
      id="g2225">
      <path
        d="M 109.86,94.219 L 109.88,94.219 L 109.9,94.221 L 109.92,94.223 L 109.93,94.227 L 109.95,94.231 L 109.97,94.237 L 109.99,94.243 L 110,94.25 L 110.02,94.258 L 110.03,94.267 L 110.05,94.277 L 110.06,94.287 L 110.08,94.299 L 110.09,94.311 L 110.1,94.323 L 110.12,94.336 L 110.13,94.35 L 110.14,94.365 L 110.15,94.38 L 110.16,94.396 L 110.17,94.412 L 110.18,94.429 L 110.19,94.446 L 110.19,94.464 L 110.2,94.483 L 110.21,94.501 L 110.21,94.52 L 110.22,94.54 L 110.22,94.56 L 110.22,94.58 L 110.22,94.6 L 110.22,94.621 L 110.22,105.6 C 110.22,105.82 110.06,106 109.86,106 L 107.9,106 C 107.7,106 107.54,105.82 107.54,105.6 L 107.54,94.621 C 107.54,94.398 107.7,94.219 107.9,94.219 L 109.86,94.219 z "
        transform="matrix(1.7361e-3,0,0,-1.7361e-3,-3.125e-2,1.1875)"
        style="font-style:normal;font-variant:normal;font-weight:normal;font-stretch:normal;letter-spacing:normal;word-spacing:normal;text-anchor:start;fill:#ff0000;fill-opacity:1;fill-rule:evenodd;stroke:#e1114d;stroke-width:0;stroke-linecap:butt;stroke-linejoin:miter;stroke-miterlimit:10.43299961;stroke-dasharray:none;stroke-dashoffset:0;stroke-opacity:1"
        id="path14"/>
      <path
        d="M 122.45,106 L 120.57,106 C 120.37,106 120.21,105.82 120.21,105.6 L 120.21,101.03 L 116.24,101.03 L 116.24,105.6 C 116.24,105.82 116.08,106 115.89,106 L 114,106 C 113.81,106 113.64,105.82 113.64,105.6 L 113.64,94.621 C 113.64,94.398 113.81,94.219 114,94.219 L 115.89,94.219 C 116.08,94.219 116.24,94.398 116.24,94.621 L 116.24,99.77 L 120.21,99.77 L 120.21,94.621 C 120.21,94.398 120.37,94.219 120.57,94.219 L 122.45,94.219 C 122.65,94.219 122.81,94.398 122.81,94.621 L 122.81,105.6 C 122.81,105.82 122.65,106 122.45,106 z "
        transform="matrix(1.7361e-3,0,0,-1.7361e-3,-3.125e-2,1.1875)"
        style="font-style:normal;font-variant:normal;font-weight:normal;font-stretch:normal;letter-spacing:normal;word-spacing:normal;text-anchor:start;fill:#ff0000;fill-opacity:1;fill-rule:evenodd;stroke:#e1114d;stroke-width:0;stroke-linecap:butt;stroke-linejoin:miter;stroke-miterlimit:10.43299961;stroke-dasharray:none;stroke-dashoffset:0;stroke-opacity:1"
        id="path16"/>
      <path
        d="M 83,722.5 C 82.751251,722.49998 82.5625,722.725 82.5625,723 L 82.5625,736.71875 C 82.562498,736.99251 82.751252,737.21875 83,737.21875 L 88.78125,737.21875 C 92.194978,737.21876 94.875,735.12372 94.875,729.84375 C 94.874997,724.64377 92.232478,722.5 88.84375,722.5 L 83,722.5 z M 85.8125,724.09375 L 88,724.09375 C 90.651236,724.09377 91.5,725.85628 91.5,729.84375 C 91.499999,733.87371 90.704983,735.65625 88,735.65625 L 85.8125,735.65625 L 85.8125,724.09375 z "
        transform="scale(1.3888889e-3,1.3888889e-3)"
        style="font-style:normal;font-variant:normal;font-weight:normal;font-stretch:normal;letter-spacing:normal;word-spacing:normal;text-anchor:start;fill:#ff0000;fill-opacity:1;fill-rule:evenodd;stroke:#e1114d;stroke-width:0;stroke-linecap:butt;stroke-linejoin:miter;stroke-miterlimit:10.43299961;stroke-dasharray:none;stroke-dashoffset:0;stroke-opacity:1"
        id="path18"/>
      <path
        d="M 101.625,722.5 C 101.49375,722.49998 101.33,722.63125 101.28125,722.78125 L 96.5,736.96875 C 96.451248,737.11625 96.525001,737.21875 96.65625,737.21875 L 98.09375,737.21875 C 98.226247,737.21876 98.38875,737.11625 98.4375,736.96875 L 99.625,733.34375 L 104.78125,733.34375 L 105.875,736.71875 C 105.9625,736.99251 106.2625,737.21875 106.5,737.21875 L 109.125,737.21875 C 109.3625,737.21876 109.49375,737.0225 109.40625,736.75 L 104.625,723 C 104.5375,722.71248 104.28125,722.5 104.03125,722.5 L 101.625,722.5 z M 102.1875,725.4375 L 104.25,731.78125 L 100.125,731.78125 L 102.1875,725.4375 z "
        transform="scale(1.3888889e-3,1.3888889e-3)"
        style="font-style:normal;font-variant:normal;font-weight:normal;font-stretch:normal;letter-spacing:normal;word-spacing:normal;text-anchor:start;fill:#ff0000;fill-opacity:1;fill-rule:evenodd;stroke:#e1114d;stroke-width:0;stroke-linecap:butt;stroke-linejoin:miter;stroke-miterlimit:10.43299961;stroke-dasharray:none;stroke-dashoffset:0;stroke-opacity:1"
        id="path22"/>
      <path
        d="M 138.28125,722.5 C 138.14375,722.49999 138,722.6125 137.9375,722.75 L 133.1875,736.96875 C 133.13749,737.11625 133.1875,737.21875 133.3125,737.21875 L 134.78125,737.21875 C 134.90624,737.21876 135.075,737.11625 135.125,736.96875 L 136.3125,733.34375 L 141.46875,733.34375 L 142.5625,736.71875 C 142.65,736.99252 142.9375,737.21875 143.1875,737.21875 L 145.78125,737.21875 C 146.01875,737.21876 146.1625,736.9975 146.0625,736.71875 L 141.3125,723 C 141.22501,722.72499 140.9375,722.5 140.6875,722.5 L 138.28125,722.5 z M 138.875,725.4375 L 140.9375,731.78125 L 136.8125,731.78125 L 138.875,725.4375 z "
        transform="scale(1.3888889e-3,1.3888889e-3)"
        style="font-style:normal;font-variant:normal;font-weight:normal;font-stretch:normal;letter-spacing:normal;word-spacing:normal;text-anchor:start;fill:#ff0000;fill-opacity:1;fill-rule:evenodd;stroke:#e1114d;stroke-width:0;stroke-linecap:butt;stroke-linejoin:miter;stroke-miterlimit:10.43299961;stroke-dasharray:none;stroke-dashoffset:0;stroke-opacity:1"
        id="path26"/>
      <path
        d="M 142.99,105.99 L 134.19,105.99 C 134.09,105.99 134,105.9 134,105.78 L 134,104.93 C 134,104.81 134.08,104.71 134.19,104.71 L 137.32,104.71 L 137.32,94.621 C 137.32,94.398 137.48,94.219 137.68,94.219 L 139.58,94.219 C 139.78,94.219 139.94,94.398 139.94,94.621 L 139.94,104.71 L 142.99,104.71 C 143.12,104.71 143.21,104.81 143.21,104.93 L 143.21,105.78 C 143.21,105.9 143.11,105.99 142.99,105.99 z "
        transform="matrix(1.7361e-3,0,0,-1.7361e-3,-3.125e-2,1.1875)"
        style="font-style:normal;font-variant:normal;font-weight:normal;font-stretch:normal;letter-spacing:normal;word-spacing:normal;text-anchor:start;fill:#ff0000;fill-opacity:1;fill-rule:evenodd;stroke:#e1114d;stroke-width:0;stroke-linecap:butt;stroke-linejoin:miter;stroke-miterlimit:10.43299961;stroke-dasharray:none;stroke-dashoffset:0;stroke-opacity:1"
        id="path30"/>
      <path
        d="M 159.95,98.102 L 159.95,105.78 C 159.95,105.9 160.04,105.99 160.15,105.99 L 161.29,105.99 C 161.4,105.99 161.48,105.9 161.48,105.78 C 161.48,105.78 161.48,98.477 161.48,98.477 C 161.48,97.805 161.49,97.59 161.46,97.18 C 161.32,94.852 159.82,94.098 157.42,94.098 C 154.57,94.098 153.24,95.711 152.98,97.164 C 152.88,97.73 152.86,98.313 152.87,98.805 L 152.87,105.59 C 152.87,105.82 153.03,105.99 153.23,105.99 L 155.11,105.99 C 155.31,105.99 155.47,105.82 155.47,105.59 C 155.47,105.59 155.47,97.945 155.47,97.934 C 155.46,97.629 155.46,97.301 155.53,96.953 C 155.65,96.313 156.08,95.266 157.75,95.266 C 159.22,95.266 159.95,96.137 159.95,97.211 C 159.95,97.52 159.95,97.93 159.95,98.102 z "
        transform="matrix(1.7361e-3,0,0,-1.7361e-3,-3.125e-2,1.1875)"
        style="font-style:normal;font-variant:normal;font-weight:normal;font-stretch:normal;letter-spacing:normal;word-spacing:normal;text-anchor:start;fill:#ff0000;fill-opacity:1;fill-rule:evenodd;stroke:#e1114d;stroke-width:0;stroke-linecap:butt;stroke-linejoin:miter;stroke-miterlimit:10.43299961;stroke-dasharray:none;stroke-dashoffset:0;stroke-opacity:1"
        id="path32"/>
      <path
        d="M 150.05,104.17 L 150.06,104.17 L 150.07,104.17 L 150.07,104.17 L 150.07,104.16 L 150.08,104.16 L 150.08,104.16 L 150.09,104.16 L 150.09,104.16 L 150.1,104.16 L 150.1,104.16 L 150.11,104.16 L 150.11,104.16 L 150.12,104.16 L 150.12,104.16 L 150.12,104.16 L 150.13,104.16 L 150.13,104.16 L 150.14,104.16 L 150.14,104.16 L 150.15,104.16 L 150.16,104.17 L 150.17,104.17 L 150.17,104.18 L 150.18,104.18 L 150.18,104.19 L 150.19,104.19 L 150.19,104.2 L 150.2,104.21 L 150.2,104.21 L 150.21,104.22 L 150.21,104.23 L 150.21,104.24 L 150.22,104.25 L 150.22,104.26 L 150.22,104.27 L 150.23,104.28 L 150.23,104.29 L 150.23,104.3 L 150.23,104.31 L 150.23,104.32 L 150.23,104.33 L 150.23,105.34 C 150.23,105.48 150.17,105.53 150.05,105.59 C 150.05,105.59 149.81,105.73 149.23,105.89 C 148.77,106.01 148.08,106.13 147.35,106.13 C 145.62,106.13 144.81,105.56 144.32,104.89 C 143.83,104.23 143.65,103.41 143.81,102.51 C 144.08,101 145.29,100.07 146.51,99.156 C 147.46,98.441 148.38,97.891 148.68,96.973 C 148.81,96.594 148.76,96.016 148.44,95.719 C 148.09,95.398 147.7,95.273 147.06,95.273 C 146.33,95.273 145.42,95.43 144.46,95.875 C 144.29,95.961 144.09,96.059 144.09,96.059 C 143.99,96.102 143.91,96.043 143.91,95.93 L 143.91,94.871 C 143.91,94.754 143.99,94.656 144.1,94.609 C 144.1,94.609 144.23,94.555 144.36,94.512 C 145.16,94.238 146.06,94.098 147.08,94.098 C 148.79,94.098 149.7,94.711 150.18,95.258 C 150.73,95.879 151,96.805 150.8,97.91 C 150.47,99.656 149.01,100.61 147.84,101.43 C 146.96,102.05 146.08,102.66 145.85,103.36 C 145.69,103.89 145.91,104.25 146.04,104.43 C 146.27,104.74 146.79,104.97 147.46,104.97 C 148.05,104.97 148.67,104.86 149.34,104.54 C 149.48,104.48 149.77,104.34 150.05,104.17 z "
        transform="matrix(1.7361e-3,0,0,-1.7361e-3,-3.125e-2,1.1875)"
        style="font-style:normal;font-variant:normal;font-weight:normal;font-stretch:normal;letter-spacing:normal;word-spacing:normal;text-anchor:start;fill:#ff0000;fill-opacity:1;fill-rule:evenodd;stroke:#e1114d;stroke-width:0;stroke-linecap:butt;stroke-linejoin:miter;stroke-miterlimit:10.43299961;stroke-dasharray:none;stroke-dashoffset:0;stroke-opacity:1"
        id="path34"/>
      <polygon
        points="38.043,88.746 76.191,88.746 76.191,111.19 38.043,111.19 38.043,88.746 "
        transform="matrix(1.7361e-3,0,0,-1.7361e-3,-3.125e-2,1.1875)"
        style="font-style:normal;font-variant:normal;font-weight:normal;font-stretch:normal;letter-spacing:normal;word-spacing:normal;text-anchor:start;fill:#ff0000;fill-opacity:1;fill-rule:evenodd;stroke:#e1114d;stroke-width:0;stroke-linecap:butt;stroke-linejoin:miter;stroke-miterlimit:10.43299961;stroke-dasharray:none;stroke-dashoffset:0;stroke-opacity:1"
        id="polygon36"/>
      <path
        d="M 49.566,104.57 L 50.26,104.57 L 50.969,104.56 L 52.428,104.54 L 53.932,104.49 L 55.469,104.43 L 57.026,104.35 L 58.591,104.24 L 60.152,104.12 L 61.696,103.97 L 63.212,103.8 L 64.687,103.61 L 65.405,103.51 L 66.109,103.39 L 66.796,103.28 L 67.465,103.15 L 68.115,103.02 L 68.744,102.88 L 69.351,102.74 L 69.933,102.58 L 70.49,102.42 L 71.02,102.26 L 71.521,102.08 L 71.992,101.9 C 72.445,101.72 72.805,101.56 72.805,101.23 C 72.805,100.77 71.809,100.45 70.891,100.16 C 67.289,99.035 60.855,97.727 51.434,97.055 L 42.695,105.79 C 41.848,105.77 41.141,105.74 40.617,105.7 L 49.645,96.676 L 47.195,93.102 C 61.785,95.41 68.383,97.719 71.313,99.066 C 71.941,99.352 73.742,100.16 73.742,101.23 C 73.742,101.87 73.133,102.26 72.344,102.6 C 69.336,103.89 64.281,104.75 59.285,105.18 C 54.109,105.69 47.215,105.83 43.406,105.79 L 51.539,97.66 C 53.141,97.777 54.652,97.91 56.082,98.059 L 49.566,104.57 z "
        transform="matrix(1.7361e-3,0,0,-1.7361e-3,-3.125e-2,1.1875)"
        style="font-style:normal;font-variant:normal;font-weight:normal;font-stretch:normal;letter-spacing:normal;word-spacing:normal;text-anchor:start;fill:#ffffff;fill-opacity:1;fill-rule:evenodd;stroke:#ffffff;stroke-width:0;stroke-linecap:butt;stroke-linejoin:miter;stroke-miterlimit:10.43299961;stroke-dasharray:none;stroke-dashoffset:0;stroke-opacity:1"
        id="path38"/>
    </g>
  </g>
</svg>

<svg xmlns="http://www.w3.org/2000/svg" version="1.0" viewBox="0 0 600 109"><path d="M109.86 94.219h.02l.02.002.02.002.01.004.02.004.02.006.02.006.01.007.02.008.01.009.02.01.01.01.02.012.01.012.01.012.02.013.01.014.01.015.01.015.01.016.01.016.01.017.01.017v.018l.01.019.01.018v.019l.01.02V105.6c0 .22-.16.4-.36.4h-1.96c-.2 0-.36-.18-.36-.4V94.621c0-.223.16-.402.36-.402h1.96zM122.45 106h-1.88c-.2 0-.36-.18-.36-.4v-4.57h-3.97v4.57c0 .22-.16.4-.35.4H114c-.19 0-.36-.18-.36-.4V94.621c0-.223.17-.402.36-.402h1.89c.19 0 .35.179.35.402v5.149h3.97v-5.149c0-.223.16-.402.36-.402h1.88c.2 0 .36.179.36.402V105.6c0 .22-.16.4-.36.4z" transform="matrix(4.86072 0 0 -4.85653 -184.916 539.998)" style="font-style:normal;font-variant:normal;font-weight:400;font-stretch:normal;letter-spacing:normal;word-spacing:normal;text-anchor:start;fill:red;fill-opacity:1;fill-rule:evenodd;stroke:#e1114d;stroke-width:0;stroke-linecap:butt;stroke-linejoin:miter;stroke-miterlimit:10.43299961;stroke-dasharray:none;stroke-dashoffset:0;stroke-opacity:1"/><path d="M83 722.5c-.249 0-.438.225-.438.5v13.719c0 .274.19.5.438.5h5.781c3.414 0 6.094-2.095 6.094-7.375 0-5.2-2.643-7.344-6.031-7.344H83zm2.813 1.594H88c2.651 0 3.5 1.762 3.5 5.75 0 4.03-.795 5.812-3.5 5.812h-2.188v-11.562zM101.625 722.5c-.131 0-.295.131-.344.281L96.5 736.97c-.049.147.025.25.156.25h1.438a.389.389 0 0 0 .344-.25l1.187-3.625h5.156l1.094 3.375c.088.274.388.5.625.5h2.625c.237 0 .369-.197.281-.469L104.625 723c-.088-.288-.344-.5-.594-.5h-2.406zm.563 2.938 2.062 6.343h-4.125l2.063-6.343zM138.281 722.5c-.137 0-.281.112-.344.25l-4.75 14.219c-.05.147 0 .25.125.25h1.47a.399.399 0 0 0 .343-.25l1.188-3.625h5.156l1.094 3.375c.087.274.375.5.625.5h2.593c.238 0 .381-.222.281-.5L141.313 723c-.087-.275-.375-.5-.625-.5h-2.406zm.594 2.938 2.063 6.343h-4.125l2.062-6.343z" transform="matrix(3.8886 0 0 3.8853 -97.423 -2781.891)" style="font-style:normal;font-variant:normal;font-weight:400;font-stretch:normal;letter-spacing:normal;word-spacing:normal;text-anchor:start;fill:red;fill-opacity:1;fill-rule:evenodd;stroke:#e1114d;stroke-width:0;stroke-linecap:butt;stroke-linejoin:miter;stroke-miterlimit:10.43299961;stroke-dasharray:none;stroke-dashoffset:0;stroke-opacity:1"/><path d="M142.99 105.99h-8.8c-.1 0-.19-.09-.19-.21v-.85c0-.12.08-.22.19-.22h3.13V94.621c0-.223.16-.402.36-.402h1.9c.2 0 .36.179.36.402v10.089h3.05c.13 0 .22.1.22.22v.85c0 .12-.1.21-.22.21zM159.95 98.102v7.678c0 .12.09.21.2.21h1.14c.11 0 .19-.09.19-.21v-7.303c0-.672.01-.887-.02-1.297-.14-2.328-1.64-3.082-4.04-3.082-2.85 0-4.18 1.613-4.44 3.066-.1.566-.12 1.149-.11 1.641v6.785c0 .23.16.4.36.4h1.88c.2 0 .36-.17.36-.4v-7.656c-.01-.305-.01-.633.06-.981.12-.64.55-1.687 2.22-1.687 1.47 0 2.2.871 2.2 1.945v.891zM150.05 104.17h.02v-.01h.08l.01.01h.01v.01h.01v.01h.01v.01l.01.01.01.01v.02l.01.01v.02l.01.01v1.06c0 .14-.06.19-.18.25 0 0-.24.14-.82.3-.46.12-1.15.24-1.88.24-1.73 0-2.54-.57-3.03-1.24-.49-.66-.67-1.48-.51-2.38.27-1.51 1.48-2.44 2.7-3.354.95-.715 1.87-1.265 2.17-2.183.13-.379.08-.957-.24-1.254-.35-.321-.74-.446-1.38-.446-.73 0-1.64.157-2.6.602-.17.086-.37.184-.37.184-.1.043-.18-.016-.18-.129v-1.059c0-.117.08-.215.19-.262 0 0 .13-.054.26-.097.8-.274 1.7-.414 2.72-.414 1.71 0 2.62.613 3.1 1.16.55.621.82 1.547.62 2.652-.33 1.746-1.79 2.7-2.96 3.52-.88.62-1.76 1.23-1.99 1.93-.16.53.06.89.19 1.07.23.31.75.54 1.42.54.59 0 1.21-.11 1.88-.43.14-.06.43-.2.71-.37zM38.043 88.746h38.148v22.444H38.043V88.746z" transform="matrix(4.86072 0 0 -4.85653 -184.916 539.998)" style="font-style:normal;font-variant:normal;font-weight:400;font-stretch:normal;letter-spacing:normal;word-spacing:normal;text-anchor:start;fill:red;fill-opacity:1;fill-rule:evenodd;stroke:#e1114d;stroke-width:0;stroke-linecap:butt;stroke-linejoin:miter;stroke-miterlimit:10.43299961;stroke-dasharray:none;stroke-dashoffset:0;stroke-opacity:1"/><path d="M49.566 104.57h.694l.709-.01 1.459-.02 1.504-.05 1.537-.06 1.557-.08 1.565-.11 1.561-.12 1.544-.15 1.516-.17 1.475-.19.718-.1.704-.12.687-.11.669-.13.65-.13.629-.14.607-.14.582-.16.557-.16.53-.16.501-.18.471-.18c.453-.18.813-.34.813-.67 0-.46-.996-.78-1.914-1.07-3.602-1.125-10.036-2.433-19.457-3.105l-8.739 8.735c-.847-.02-1.554-.05-2.078-.09l9.028-9.024-2.45-3.574c14.59 2.308 21.188 4.617 24.118 5.964.628.286 2.429 1.094 2.429 2.164 0 .64-.609 1.03-1.398 1.37-3.008 1.29-8.063 2.15-13.059 2.58-5.176.51-12.07.65-15.879.61l8.133-8.13c1.602.117 3.113.25 4.543.399l-6.516 6.511z" transform="matrix(4.86072 0 0 -4.85653 -184.916 539.998)" style="font-style:normal;font-variant:normal;font-weight:400;font-stretch:normal;letter-spacing:normal;word-spacing:normal;text-anchor:start;fill:#fff;fill-opacity:1;fill-rule:evenodd;stroke:#fff;stroke-width:0;stroke-linecap:butt;stroke-linejoin:miter;stroke-miterlimit:10.43299961;stroke-dasharray:none;stroke-dashoffset:0;stroke-opacity:1"/></svg>
